icons/breezeLight/actions/24/list-add.svg

<svg viewBox="0 0 24 24" xmlns="http://www.w3.org/2000/svg"><path d="m11 5v7h-7v1h7v7h1v-7h7v-1h-7v-7z" fill="#4d4d4d"/></svg>

<svg xmlns="http://www.w3.org/2000/svg" viewBox="0 0 24 24">
  <defs id="defs3051">
    <style type="text/css" id="current-color-scheme">
      .ColorScheme-Text {
        color:#4d4d4d;
      }
      </style>
  </defs>
 <path style="fill:currentColor;fill-opacity:1;stroke:none" 
     d="M 11 5 L 11 12 L 4 12 L 4 13 L 11 13 L 11 20 L 12 20 L 12 13 L 19 13 L 19 12 L 12 12 L 12 5 L 11 5 z "
     class="ColorScheme-Text"
     />
</svg>
